packages/ffe-icons/icons/filled/sm/spoke.svg

<svg xmlns="http://www.w3.org/2000/svg" height="20" viewBox="0 -960 960 960" width="20"><path d="M480-548.001q-51.749 0-87.874-36.125-36.125-36.125-36.125-87.874 0-51.749 36.125-87.874 36.125-36.125 87.874-36.125 51.749 0 87.874 36.125 36.125 36.125 36.125 87.874 0 51.749-36.125 87.874-36.125 36.125-87.874 36.125Zm-192 384q-51.749 0-87.874-36.125-36.125-36.125-36.125-87.874 0-51.749 36.125-87.874 36.125-36.125 87.874-36.125 51.749 0 87.874 36.125 36.125 36.125 36.125 87.874 0 51.749-36.125 87.874-36.125 36.125-87.874 36.125Zm384 0q-51.749 0-87.874-36.125-36.125-36.125-36.125-87.874 0-51.749 36.125-87.874 36.125-36.125 87.874-36.125 51.749 0 87.874 36.125 36.125 36.125 36.125 87.874 0 51.749-36.125 87.874-36.125 36.125-87.874 36.125Z"/></svg>

<svg xmlns="http://www.w3.org/2000/svg" height="20" viewBox="0 -960 960 960" width="20"><path d="M480-548q-51.75 0-87.87-36.13Q356-620.25 356-672q0-51.75 36.13-87.87Q428.25-796 480-796q51.75 0 87.87 36.13Q604-723.75 604-672q0 51.75-36.13 87.87Q531.75-548 480-548ZM288-164q-51.75 0-87.87-36.13Q164-236.25 164-288q0-51.75 36.13-87.87Q236.25-412 288-412q51.75 0 87.87 36.13Q412-339.75 412-288q0 51.75-36.13 87.87Q339.75-164 288-164Zm384 0q-51.75 0-87.87-36.13Q548-236.25 548-288q0-51.75 36.13-87.87Q620.25-412 672-412q51.75 0 87.87 36.13Q796-339.75 796-288q0 51.75-36.13 87.87Q723.75-164 672-164Z"/></svg>
